packages/gui/src/assets/img/video-small.svg

<?xml version="1.0" encoding="UTF-8" standalone="no"?>
<svg
   width="64"
   height="49"
   viewBox="0 0 64 49"
   fill="none"
   version="1.1"
   id="svg1"
   xmlns="http://www.w3.org/2000/svg"
   xmlns:svg="http://www.w3.org/2000/svg">
  <defs
     id="defs1" />
  <path
     fill-rule="evenodd"
     clip-rule="evenodd"
     d="m 24,4.93506 h 16 c 5.7699,0 9.695,0.00849 12.6343,0.40367 2.8242,0.37971 4.1323,1.04919 5.0226,1.93947 0.8902,0.89029 1.5597,2.19837 1.9394,5.0226 C 59.9915,15.2401 60,19.1651 60,24.9351 c 0,5.7699 -0.0085,9.695 -0.4037,12.6342 -0.3797,2.8242 -1.0492,4.1323 -1.9394,5.0226 -0.8903,0.8903 -2.1984,1.5598 -5.0226,1.9395 C 49.695,44.9266 45.7699,44.9351 40,44.9351 H 24 c -5.7699,0 -9.695,-0.0085 -12.6343,-0.4037 C 8.54152,44.1517 7.23343,43.4822 6.34315,42.5919 5.45286,41.7016 4.78338,40.3935 4.40367,37.5693 4.00849,34.6301 4,30.705 4,24.9351 4,19.1651 4.00849,15.2401 4.40367,12.3008 4.78338,9.47657 5.45286,8.16849 6.34315,7.2782 7.23343,6.38792 8.54152,5.71844 11.3657,5.33873 14.305,4.94355 18.2301,4.93506 24,4.93506 Z M 0,24.9351 C 0,13.6214 0,7.9645 3.51472,4.44978 7.02944,0.935059 12.6863,0.935059 24,0.935059 h 16 c 11.3137,0 16.9706,0 20.4853,3.514721 C 64,7.9645 64,13.6214 64,24.9351 64,36.2488 64,41.9056 60.4853,45.4203 56.9706,48.9351 51.3137,48.9351 40,48.9351 H 24 c -11.3137,0 -16.97056,0 -20.48528,-3.5148 C 0,41.9056 0,36.2488 0,24.9351 Z M 24.8276,13.1143 C 24.2086,12.8329 23.489,12.8854 22.9172,13.2535 22.3455,13.6217 22,14.2551 22,14.9351 v 20 c 0,0.68 0.3455,1.3134 0.9172,1.6815 0.5718,0.3682 1.2914,0.4206 1.9104,0.1392 l 22,-10 C 47.5416,26.4313 48,25.7193 48,24.9351 48,24.1508 47.5416,23.4389 46.8276,23.1143 Z M 26,31.8291 v -13.788 l 15.1668,6.894 z"
     fill="#3AAC59"
     id="path1"
     style="fill:#853aac;fill-opacity:1" />
</svg>

<svg width="100%" height="100%" viewBox="0 0 64 49" fill="none" xmlns="http://www.w3.org/2000/svg"><path fill-rule="evenodd" clip-rule="evenodd" d="M24 4.93506H40C45.7699 4.93506 49.695 4.94355 52.6343 5.33873C55.4585 5.71844 56.7666 6.38792 57.6569 7.2782C58.5471 8.16849 59.2166 9.47657 59.5963 12.3008C59.9915 15.2401 60 19.1651 60 24.9351C60 30.705 59.9915 34.6301 59.5963 37.5693C59.2166 40.3935 58.5471 41.7016 57.6569 42.5919C56.7666 43.4822 55.4585 44.1517 52.6343 44.5314C49.695 44.9266 45.7699 44.9351 40 44.9351H24C18.2301 44.9351 14.305 44.9266 11.3657 44.5314C8.54152 44.1517 7.23343 43.4822 6.34315 42.5919C5.45286 41.7016 4.78338 40.3935 4.40367 37.5693C4.00849 34.6301 4 30.705 4 24.9351C4 19.1651 4.00849 15.2401 4.40367 12.3008C4.78338 9.47657 5.45286 8.16849 6.34315 7.2782C7.23343 6.38792 8.54152 5.71844 11.3657 5.33873C14.305 4.94355 18.2301 4.93506 24 4.93506ZM0 24.9351C0 13.6214 0 7.9645 3.51472 4.44978C7.02944 0.935059 12.6863 0.935059 24 0.935059H40C51.3137 0.935059 56.9706 0.935059 60.4853 4.44978C64 7.9645 64 13.6214 64 24.9351C64 36.2488 64 41.9056 60.4853 45.4203C56.9706 48.9351 51.3137 48.9351 40 48.9351H24C12.6863 48.9351 7.02944 48.9351 3.51472 45.4203C0 41.9056 0 36.2488 0 24.9351ZM24.8276 13.1143C24.2086 12.8329 23.489 12.8854 22.9172 13.2535C22.3455 13.6217 22 14.2551 22 14.9351V34.9351C22 35.6151 22.3455 36.2485 22.9172 36.6166C23.489 36.9848 24.2086 37.0372 24.8276 36.7558L46.8276 26.7558C47.5416 26.4313 48 25.7193 48 24.9351C48 24.1508 47.5416 23.4389 46.8276 23.1143L24.8276 13.1143ZM26 31.8291V18.0411L41.1668 24.9351L26 31.8291Z" fill="#3AAC59"/></svg>
